X: 1
T: The Green Cottage
R: polka
M: 2/4
L: 1/8
K: Dmaj
ba|:"Em"(ge) (ed)|"Em"(Be) (ef)|"Em"g>f ed|"Em"(ga) "B"(b>a)|
"Em"ge (ed)|"Em"(Be) e2|"B"(b>a) (gf)|1 "Em"e2 eb/a/:|2 "Em"e2 (eA)||
"Em" Be (e>f)|"Em" ed BA|"Em" Be "Bm"df|e2 (ef)|
"Em"gg/g/ "Bm"gg/g/|"Em"ed (BA)|"Em" B>E E/F/G/A/|1 "B" B2 (BA):|2 "B" B2B2||


Tune 559	Setting 13529

